dist/assets/img/icon-corruption.svg

<svg width="58" height="58" viewBox="0 0 58 58" fill="none" xmlns="http://www.w3.org/2000/svg">
<path fill-rule="evenodd" clip-rule="evenodd" d="M47.776 53.2952C47.7833 53.4583 47.7396 53.6197 47.6509 53.757L47.6508 53.757C47.4133 54.1154 46.9309 54.2149 46.5708 53.9798L42.5921 51.4368L38.6134 53.9798C38.356 54.1451 38.0255 54.1451 37.7681 53.9798L33.7933 51.4368L29.8146 53.9798C29.5571 54.1451 29.227 54.1451 28.9696 53.9798H28.9692L24.9906 51.433L21.0119 53.9798C20.7545 54.1451 20.4244 54.1451 20.1669 53.9798L16.1882 51.433L12.2054 53.9798C12.0793 54.0612 11.9326 54.1045 11.7827 54.1049C11.5151 54.1059 11.2661 53.9701 11.1215 53.7451C11.0387 53.6099 10.9964 53.4538 11.0002 53.2952V5.56493C11.0002 5.14994 11.1651 4.75172 11.4585 4.4583C11.752 4.16488 12.1502 4 12.5652 4H16.2232C16.1334 4.25116 16.0869 4.51559 16.0862 4.78246V8.69478C16.0862 9.52473 16.416 10.3208 17.0028 10.908C17.59 11.4949 18.3861 11.8246 19.2161 11.8246H39.5601C40.3901 11.8246 41.1862 11.4949 41.7734 10.908C42.3602 10.3209 42.69 9.52474 42.69 8.69478V4.78246C42.6893 4.51559 42.6428 4.25116 42.5531 4H46.2111C46.626 4 47.0243 4.16488 47.3177 4.4583C47.6111 4.75172 47.776 5.14994 47.776 5.56493V53.2952ZM42.2989 14.1724H21.9548C21.5227 14.1724 21.1724 14.5228 21.1724 14.9549C21.1724 15.387 21.5227 15.7373 21.9548 15.7373H42.2989C42.731 15.7373 43.0813 15.387 43.0813 14.9549C43.0813 14.5228 42.731 14.1724 42.2989 14.1724ZM42.2989 18.0847H21.9548C21.5227 18.0847 21.1724 18.4351 21.1724 18.8672C21.1724 19.2993 21.5227 19.6496 21.9548 19.6496H42.2989C42.731 19.6496 43.0813 19.2993 43.0813 18.8672C43.0813 18.4351 42.731 18.0847 42.2989 18.0847ZM42.2989 21.997H21.9548C21.5227 21.997 21.1724 22.3474 21.1724 22.7795C21.1724 23.2116 21.5227 23.5619 21.9548 23.5619H42.2989C42.731 23.5619 43.0813 23.2116 43.0813 22.7795C43.0813 22.3474 42.731 21.997 42.2989 21.997ZM42.2989 25.9093H21.9548C21.5227 25.9093 21.1724 26.2597 21.1724 26.6918C21.1724 27.1239 21.5227 27.4743 21.9548 27.4743H42.2989C42.731 27.4743 43.0813 27.1239 43.0813 26.6918C43.0813 26.2597 42.731 25.9093 42.2989 25.9093ZM42.2989 29.8217H21.9548C21.5227 29.8217 21.1724 30.172 21.1724 30.6041C21.1724 31.0362 21.5227 31.3866 21.9548 31.3866H42.2989C42.731 31.3866 43.0813 31.0362 43.0813 30.6041C43.0813 30.172 42.731 29.8217 42.2989 29.8217ZM18.825 14.1724H15.6951C15.263 14.1724 14.9127 14.5228 14.9127 14.9549C14.9127 15.387 15.263 15.7373 15.6951 15.7373H18.825C19.2571 15.7373 19.6074 15.387 19.6074 14.9549C19.6074 14.5228 19.2571 14.1724 18.825 14.1724ZM18.825 18.0847H15.6951C15.263 18.0847 14.9127 18.4351 14.9127 18.8672C14.9127 19.2993 15.263 19.6496 15.6951 19.6496H18.825C19.2571 19.6496 19.6074 19.2993 19.6074 18.8672C19.6074 18.4351 19.2571 18.0847 18.825 18.0847ZM18.825 21.997H15.6951C15.263 21.997 14.9127 22.3474 14.9127 22.7795C14.9127 23.2116 15.263 23.5619 15.6951 23.5619H18.825C19.2571 23.5619 19.6074 23.2116 19.6074 22.7795C19.6074 22.3474 19.2571 21.997 18.825 21.997ZM18.825 25.9093H15.6951C15.263 25.9093 14.9127 26.2597 14.9127 26.6918C14.9127 27.1239 15.263 27.4743 15.6951 27.4743H18.825C19.2571 27.4743 19.6074 27.1239 19.6074 26.6918C19.6074 26.2597 19.2571 25.9093 18.825 25.9093ZM15.6951 29.8217C15.263 29.8217 14.9127 30.172 14.9127 30.6041C14.9127 31.0362 15.263 31.3866 15.6951 31.3866H18.825C19.2571 31.3866 19.6074 31.0362 19.6074 30.6041C19.6074 30.172 19.2571 29.8217 18.825 29.8217H15.6951ZM17.5958 46.3089C19.0632 47.7764 21.0533 48.6008 23.1285 48.6008C25.2038 48.6008 27.1938 47.7764 28.6613 46.3089C30.1288 44.8415 30.9532 42.8514 30.9532 40.7761C30.9532 38.7009 30.1288 36.7108 28.6613 35.2434C27.1938 33.7759 25.2038 32.9515 23.1285 32.9515C21.0533 32.9515 19.0632 33.7759 17.5958 35.2434C16.1283 36.7108 15.3039 38.7009 15.3039 40.7761C15.3039 42.8514 16.1283 44.8414 17.5958 46.3089ZM33.3005 44.6885H42.6901C43.1222 44.6885 43.4726 44.3381 43.4726 43.906C43.4726 43.4739 43.1222 43.1235 42.6901 43.1235H33.3005C32.8685 43.1235 32.5181 43.4739 32.5181 43.906C32.5181 44.3381 32.8685 44.6885 33.3005 44.6885ZM33.3005 38.4287H42.6901C43.1222 38.4287 43.4726 38.0784 43.4726 37.6463C43.4726 37.2142 43.1222 36.8638 42.6901 36.8638H33.3005C32.8685 36.8638 32.5181 37.2142 32.5181 37.6463C32.5181 38.0784 32.8685 38.4287 33.3005 38.4287ZM39.5598 10.2601C39.9748 10.2601 40.373 10.0952 40.6664 9.80177C40.9599 9.50835 41.1247 9.11013 41.1247 8.69515V4.78283C41.1247 4.57534 41.0423 4.37623 40.8956 4.22952C40.7489 4.08281 40.5498 4.00037 40.3423 4.00037H18.4333C18.0012 4.00037 17.6508 4.35073 17.6508 4.78283V8.69515C17.6508 9.11013 17.8157 9.50835 18.1091 9.80177C18.4026 10.0952 18.8008 10.2601 19.2158 10.2601H39.5598ZM19.2158 5.56529H39.5598V7.91268C39.5598 8.12017 39.4774 8.31929 39.3307 8.466C39.184 8.61271 38.9848 8.69515 38.7774 8.69515H19.9982C19.5661 8.69515 19.2158 8.34478 19.2158 7.91268V5.56529ZM21.8529 38.8204C21.8529 38.3548 22.2169 37.8972 23.1869 37.8972C23.7898 37.8923 24.3732 38.1127 24.8224 38.5151C24.9523 38.6615 25.1322 38.7534 25.3268 38.7736C25.6712 38.7757 25.9524 38.4994 25.957 38.1553C25.9591 38.016 25.9179 37.8794 25.8396 37.7641C25.3107 37.1409 24.5503 36.7609 23.7346 36.7116V36.0545C23.7346 35.7541 23.4912 35.5107 23.1908 35.5107C22.8904 35.5107 22.6469 35.7541 22.6469 36.0545V36.7196C21.1721 36.8642 20.4993 37.7836 20.4993 38.8204C20.4993 40.4045 21.848 40.8503 23.0285 41.2405C23.947 41.5441 24.7637 41.814 24.7637 42.5605C24.7637 43.2842 24.2513 43.6363 23.1988 43.6363C22.4586 43.614 21.7607 43.287 21.2699 42.7327C21.1452 42.5759 20.958 42.4812 20.7575 42.4746C20.5311 42.4777 20.324 42.6021 20.215 42.8005C20.1057 42.9985 20.1112 43.2399 20.2293 43.4331C20.7956 44.2253 21.6776 44.7332 22.6469 44.8258V45.479C22.6469 45.7794 22.8904 46.0229 23.1908 46.0229C23.4912 46.0229 23.7347 45.7794 23.7347 45.479V44.8453C25.2996 44.6927 26.1212 43.8516 26.1212 42.5643C26.1212 40.8695 24.6858 40.397 23.4798 40C22.6062 39.7125 21.853 39.4645 21.853 38.8204L21.8529 38.8204Z" fill="#424244"/>
</svg>

<svg width="58" height="58" fill="none" xmlns="http://www.w3.org/2000/svg"><path fill-rule="evenodd" clip-rule="evenodd" d="M47.776 53.295a.786.786 0 01-.125.462.782.782 0 01-1.08.223l-3.979-2.543-3.979 2.543a.782.782 0 01-.845 0l-3.975-2.543-3.978 2.543a.782.782 0 01-.845 0l-3.98-2.547-3.978 2.547a.782.782 0 01-.845 0l-3.979-2.547-3.983 2.547a.783.783 0 01-1.084-.235.824.824 0 01-.12-.45V5.565A1.565 1.565 0 0112.564 4h3.658c-.09.251-.136.516-.137.782v3.913a3.131 3.131 0 003.13 3.13H39.56a3.13 3.13 0 003.13-3.13V4.782c0-.266-.047-.53-.137-.782h3.658a1.565 1.565 0 011.565 1.565v47.73zm-5.477-39.123H21.955a.782.782 0 000 1.565h20.344a.782.782 0 000-1.565zm0 3.913H21.955a.782.782 0 000 1.565h20.344a.782.782 0 000-1.565zm0 3.912H21.955a.782.782 0 000 1.565h20.344a.782.782 0 000-1.565zm0 3.912H21.955a.782.782 0 000 1.565h20.344a.782.782 0 000-1.565zm0 3.913H21.955a.782.782 0 000 1.565h20.344a.782.782 0 000-1.565zm-23.474-15.65h-3.13a.782.782 0 000 1.565h3.13a.782.782 0 000-1.565zm0 3.913h-3.13a.782.782 0 000 1.565h3.13a.782.782 0 000-1.565zm0 3.912h-3.13a.782.782 0 000 1.565h3.13a.782.782 0 000-1.565zm0 3.912h-3.13a.782.782 0 000 1.565h3.13a.782.782 0 000-1.565zm-3.13 3.913a.782.782 0 000 1.565h3.13a.782.782 0 000-1.565h-3.13zm1.9 16.487a7.824 7.824 0 1011.066-11.064 7.824 7.824 0 00-11.065 11.064zm15.706-1.62h9.39a.783.783 0 000-1.566H33.3a.783.783 0 000 1.566zm0-6.26h9.39a.782.782 0 100-1.565H33.3a.783.783 0 000 1.565zM39.56 10.26a1.565 1.565 0 001.565-1.565V4.783A.783.783 0 0040.342 4H18.433a.783.783 0 00-.782.783v3.912a1.565 1.565 0 001.565 1.565H39.56zM19.216 5.565H39.56v2.348a.783.783 0 01-.783.782H19.998a.782.782 0 01-.782-.782V5.565zm2.637 33.255c0-.465.364-.923 1.334-.923a2.422 2.422 0 011.635.618c.13.146.31.238.505.259a.627.627 0 00.63-.619.678.678 0 00-.117-.39 2.998 2.998 0 00-2.105-1.053v-.658a.544.544 0 10-1.088 0v.666c-1.475.144-2.148 1.064-2.148 2.1 0 1.584 1.349 2.03 2.53 2.42.918.304 1.735.574 1.735 1.32 0 .724-.513 1.076-1.565 1.076a2.684 2.684 0 01-1.93-.903.684.684 0 00-.511-.258.629.629 0 00-.529.958 3.365 3.365 0 002.418 1.393v.653a.544.544 0 101.088 0v-.634c1.565-.152 2.386-.993 2.386-2.28 0-1.695-1.435-2.168-2.641-2.565-.874-.288-1.627-.535-1.627-1.18z" fill="#424244"/></svg>
